build/flags/Algeria.svg

<svg xmlns="http://www.w3.org/2000/svg" fill="none" viewBox="0 0 28 28" focusable="false"><defs><filter id="Algeria_svg__a"><feColorMatrix values="0 0 0 0 1 0 0 0 0 1 0 0 0 0 1 0 0 0 1 0"/></filter></defs><mask id="Algeria_svg__b" width="28" height="20" x="0" y="4" maskUnits="userSpaceOnUse"><g filter="url(#Algeria_svg__a)"><rect width="28" height="20" y="4" fill="#FFF" rx="3"/><rect width="27.5" height="19.5" x=".25" y="4.25" stroke="#F5F5F5" stroke-width=".5" rx="2.75"/></g></mask><path fill="none" d="M0 0H28V28H0z"/><rect width="28" height="20" y="4" fill="#FFF" rx="3"/><rect width="27.5" height="19.5" x=".25" y="4.25" stroke="#D6D8DD" stroke-width=".5" rx="2.75"/><g mask="url(#Algeria_svg__b)"><path fill="#048345" fill-rule="evenodd" d="M0 24L14.6667 24L14.6667 4L0 4L0 24Z"/><path d="M14.6667 24L14.6667 4L0 4L0 24L14.6667 24Z"/><path fill="#E81B42" fill-rule="evenodd" d="M17.3334 15.04L15.7659 16.1574L16.3443 14.3214L14.7972 13.1759L16.7221 13.1586L17.3334 11.3333L17.9447 13.1586L19.8695 13.1759L18.3225 14.3214L18.9008 16.1574L17.3334 15.04Z"/><path d="M15.7659 16.1574L16.3443 14.3214L14.7972 13.1759L16.7221 13.1586L17.3334 11.3333L17.9447 13.1586L19.8695 13.1759L18.3225 14.3214L18.9008 16.1574L17.3334 15.04L15.7659 16.1574Z"/><path fill="#E81B42" fill-rule="evenodd" d="M17.68 18.3813C16.6519 19.3853 15.2702 20 13.7509 20C10.5748 20 8 17.3137 8 14C8 10.6863 10.5748 8 13.7509 8C15.2702 8 16.6519 8.61468 17.68 9.61867C16.9709 9.28112 16.1688 9.09091 15.3193 9.09091C12.4319 9.09091 10.0912 11.2888 10.0912 14C10.0912 16.7112 12.4319 18.9091 15.3193 18.9091C16.1688 18.9091 16.9709 18.7189 17.68 18.3813Z"/><path d="M17.68 18.3813C16.6519 19.3853 15.2702 20 13.7509 20C10.5748 20 8 17.3137 8 14C8 10.6863 10.5748 8 13.7509 8C15.2702 8 16.6519 8.61468 17.68 9.61867C16.9709 9.28112 16.1688 9.09091 15.3193 9.09091C12.4319 9.09091 10.0912 11.2888 10.0912 14C10.0912 16.7112 12.4319 18.9091 15.3193 18.9091C16.1688 18.9091 16.9709 18.7189 17.68 18.3813Z"/></g></svg>

<svg xmlns="http://www.w3.org/2000/svg" fill="none" viewBox="0 0 28 28" focusable="false"><path fill="none" d="M0 0h28v28H0z"/><rect width="28" height="20" y="4" fill="#FFF" rx="3"/><rect width="27.5" height="19.5" x=".25" y="4.25" stroke="#D6D8DD" stroke-width=".5" rx="3"/><mask id="Algeria_svg__a" width="28" height="20" x="0" y="4" mask-type="alpha" maskUnits="userSpaceOnUse"><rect width="28" height="20" y="4" fill="#FFF" rx="3"/><rect width="27.5" height="19.5" x=".25" y="4.25" stroke="#F5F5F5" stroke-width=".5" rx="3"/></mask><g mask="url(#Algeria_svg__a)"><path fill="#048345" fill-rule="evenodd" d="M0 24h14.66V4H0z"/><path d="M14.66 24V4H0v20z"/></g><g mask="url(#Algeria_svg__a)"><path fill="#E81B42" fill-rule="evenodd" d="m17.33 15.04-1.57 1.11.58-1.83-1.55-1.15 1.93-.02.61-1.82.61 1.82 1.92.02-1.54 1.15.58 1.83z"/><path d="m15.76 16.15.58-1.83-1.55-1.15 1.93-.02.61-1.82.61 1.82 1.92.02-1.54 1.15.58 1.83-1.57-1.11z"/></g><g mask="url(#Algeria_svg__a)"><mask id="Algeria_svg__b" fill="#fff"><path fill-rule="evenodd" d="M17.68 18.381A5.6 5.6 0 0 1 13.75 20C10.576 20 8 17.314 8 14s2.575-6 5.75-6c1.52 0 2.902.615 3.93 1.619a5.5 5.5 0 0 0-2.36-.528c-2.888 0-5.229 2.198-5.229 4.909s2.34 4.91 5.228 4.91c.85 0 1.652-.191 2.361-.529" clip-rule="evenodd"/></mask><path fill="#E81B42" fill-rule="evenodd" d="M17.68 18.381A5.6 5.6 0 0 1 13.75 20C10.576 20 8 17.314 8 14s2.575-6 5.75-6c1.52 0 2.902.615 3.93 1.619a5.5 5.5 0 0 0-2.36-.528c-2.888 0-5.229 2.198-5.229 4.909s2.34 4.91 5.228 4.91c.85 0 1.652-.191 2.361-.529" clip-rule="evenodd" mask="url(#Algeria_svg__b)"/></g></svg>
